X: 163
T: No_24_Corn_Dance_Song_(n).krn
N: Derived from No_24_Corn_Dance_Song_(n).krn
%%abc-version 2.0
%%abcx-abcm2ps-target-version 5.9.1 (29 Sep 2008)
%%abc-creator hum2abc beta
%%abcx-conversion-date 2019/03/15 08:38:45
%%humdrum-veritas 4273985275
%%humdrum-veritas-data 1279857117
%%linebreak <none>
%%barnumbers 0
L: 1/8
M: 2/4
K: F clef=bass
[K:clef=bass][M:2/4]CA, C3/A,/ [I:setbarnb 2]||  
[M:3/4]CD3//C//A,2A,2 | 
A,A, CA,/G,/G,2 | 
E,/F,/E,3//E,//D,2C, z | 
A,,A,, C,A,, C,3/A,,/ | 
C,D,3//C,//C,2C,2 | 
C,C, D,D, D,3/C,/ | 
E,E,3//E,//D,2C, z | 
A,,A,, C,A,, C,3/A,,/ ||  
[M:2/4]C,D,3//C,//C,2 | 
A,,2(3:2:1C,C,(3:2:1C,/ :|]  
C,2z2 |]  



